X: 12150
T: Ewe, The
R: reel
M: 4/4
K: Gmajor
DGGF DGGE|=F2 AF cFAF|DGGF G2 eg|fdcA BGAF|
DGGF DGGE|=F2 AF cFAF|DGFA GBdg|1 fdFA G4:|2 fdcA BGBd||
g2 bg dgbg|fgaf dfaf|g2 bg dgbg|agfa g2ga|
bgaf gfdg|fdcA Bggf|dggf g2ag|fdcA BGBd|
g2 bg dgbg|=f2af cfaf|g2 bg dgbg|agfa g2ga|
bgaf gfdg|fdcA Bggf|dggf g2ag|fdcA BG~G2||

